X:1
T:Title
%%score { ( 1 3 4 ) | ( 2 5 6 ) }
L:1/8
M:4/4
K:Ab
V:1 treble nm="Grand Piano"
V:3 treble 
V:4 treble 
V:2 bass 
V:5 bass 
V:6 bass 
V:1
 z4 z2[Q:1/4=94] [CA][DB] | [Ec][Ec][Ec][DB] [CA]2 [Ac][Bd] | [ce][ce][ce][Bd] c2 AB | %3
 cccc c[ce][Bd][Ac] | [GB][GB][AB][Ac] [GB]2 [EA][EB] | [Ec][Ec][Ec][DB] [CA]2 [EAc][EBd] | %6
 [Ece][Ece][Ece][EBd] [EAc]2 [CA][CA] |[M:17/16] [DGB][DFA][DEG][A,DF][A,CE][A,CA]3/2[CEA][DEB] | %8
[M:7/8] [EAc][CA][DGB] [DEG] [A,CEA]3 |[M:1/4] ed |[M:4/4] c6 z2 | z CCC C2 cc | %12
 B-[GB-][GB-][GB-] [GB][GB][Ac][AB] |[M:9/8] e6- e z z |[M:4/4] [ce][df][ce][Bd] [Ac]2 [GB][Ac] | %15
 [Bd][ce][Bd][Ac] [GB]2 [Gc][GB] |[M:35/32] AAABc/ e2- e/(3:2:4A3/4-A/8B3/2-B/4 | %17
[M:7/8] c-c/4 z/4 z/ B- B/4 z/4 z/ z z2 |] %18
V:2
 z4 z2 [A,,E,][A,,E,] | [A,,A,][A,,A,][A,,A,][A,,A,] [A,,A,]2[K:treble] [A,E][A,E] | %2
 [A,E][A,E][A,E][A,E] [A,EA]2 [A,CE][A,DE] | %3
 [A,EA][A,EA][A,EA][A,EA] [A,EA][K:bass][A,E][A,E][A,E] | [E,E][E,E][F,=D][F,D] [E,E]2 [A,C][A,C] | %5
 [A,,A,][A,,A,][A,,A,][A,,A,] [A,,A,]2 A,A, | A,A,A,A, A,2 A,A, |[M:17/16] D,D,D,D,A,,A,,3/2A,A, | %8
[M:7/8] A,A,E, E, A,,3 |[M:1/4] z2 |[M:4/4][K:treble] [A,EA][A,E][A,E][A,E] [A,E]2 z2 | %11
 [A,C]A,[E,A,][C,A,] [A,,A,]2 z2 | [E,E][E,E][E,E][E,E] [E,E][E,E][F,=D][F,D] | %13
[M:9/8] [G,EG]2 [F,=D]- [F,D] [E,_D]2- [E,D][K:treble][A,EA][A,E] | %14
[M:4/4] [A,E][A,E][A,E][K:bass][A,E] [A,E]2 [E,E][E,E] | [E,E][E,E][E,E][E,E] [E,E]2 [E,E][E,D] | %16
[M:35/32][K:treble] [A,C][A,C][A,C][A,DA][A,EA]/ [A,CA]2- [A,CA]/(3:2:4[A,CE]3/4-[A,CE]/8[A,DE]3/2-[A,DE]/4 | %17
[M:7/8] [EA]-[EA]/4 z/4 z/ z[K:bass] z z z2 |] %18
V:3
 x8 | x8 | x8 | x8 | x8 | x8 | x8 |[M:17/16] x17/2 |[M:7/8] x7 |[M:1/4] x2 |[M:4/4] z AAA AABA | %11
 E6 z2 | .G2 z2 z4 |[M:9/8] z2 A- A G2- Gc[Bd] |[M:4/4] x8 | x8 |[M:35/32] x35/4 | %17
[M:7/8] z A-A/4 z/4 z/ G-G/4 z/4 z/ z2 |] %18
V:4
 x8 | x8 | x8 | x8 | x8 | x8 | x8 |[M:17/16] x17/2 |[M:7/8] x7 |[M:1/4] x2 |[M:4/4] x8 | x8 | x8 | %13
[M:9/8] x9 |[M:4/4] x8 | x8 |[M:35/32] x35/4 |[M:7/8] z2 G E [CEA]3 |] %18
V:5
 x8 | x6[K:treble] x2 | x8 | x5[K:bass] x3 | x8 | x8 | x8 |[M:17/16] x17/2 |[M:7/8] x7 | %9
[M:1/4] x2 |[M:4/4][K:treble] x8 | x8 | x8 |[M:9/8] x7[K:treble] x2 |[M:4/4] x3[K:bass] x5 | x8 | %16
[M:35/32][K:treble] x35/4 |[M:7/8] z [A,C]-[A,C]/4 z/4 z/[K:bass] [E,D]-[E,D]/4 z/4 z/ z2 |] %18
V:6
 x8 | x6[K:treble] x2 | x8 | x5[K:bass] x3 | x8 | x8 | x8 |[M:17/16] x17/2 |[M:7/8] x7 | %9
[M:1/4] x2 |[M:4/4][K:treble] x8 | x8 | x8 |[M:9/8] x7[K:treble] x2 |[M:4/4] x3[K:bass] x5 | x8 | %16
[M:35/32][K:treble] x35/4 |[M:7/8] A, z [E,D][K:bass] z [A,,A,]3 |] %18

